X:1
T: Look Behind You
C:William Marshall
R:Reel
Q: 232
K:D
M:4/4
L:1/8
|:B|AD FD EB, B,B|AD FD d2 df|gf ed eB Bd|FD F1/2G1/2A d3B|
AD FD EB, B,B|AD FD d2 df|gf ed eB Bd|FD F1/2G1/2A d3f|
dg f1/2g1/2a be ef|dg f1/2g1/2a fd ec|dB AF EF GB|FD F1/2G1/2A d3f|
dg f1/2g1/2a be ef|dg f1/2g1/2a fd ec|dB AF EF GB|FD F1/2G1/2A d3:|
